src/main/resources/icons/RustIcons/abstractFunction.svg

<svg width="16" height="16" viewBox="0 0 16 16" fill="none" xmlns="http://www.w3.org/2000/svg">
<rect x="4" y="1" width="8" height="14" fill="#F98B9E" fill-opacity="0.6"/>
<path fill-rule="evenodd" clip-rule="evenodd" d="M7 12H8V8H9.5V7H8C8 7 7.99532 6.04254 7.99466 6C7.98705 5.50341 8.1329 5.07282 8.43221 4.97217C8.91964 4.80825 9.56885 5.02115 9.68985 5.06415L9.9852 4.22604C9.90948 4.19883 9.4559 4 8.8114 4C8.1669 4 7.81677 4.0614 7.48189 4.38879C7.16513 4.69847 7.01614 5.22015 7.00125 6C7.00039 6.0446 6.99998 6.95274 7 7C7.00001 7.0273 6 7 6 7V7.972H7V12Z" fill="#231F20" fill-opacity="0.7"/>
<path fill-rule="evenodd" clip-rule="evenodd" d="M3 1.17072C1.83481 1.58255 1 2.69379 1 4.00001V12C1 13.3062 1.83481 14.4175 3 14.8293V1.17072ZM13 1.17072V14.8293C14.1652 14.4175 15 13.3062 15 12V4.00001C15 2.69379 14.1652 1.58255 13 1.17072Z" fill="#9AA7B0" fill-opacity="0.6"/>
</svg>

<svg width="16" height="16" viewBox="0 0 16 16" fill="none" xmlns="http://www.w3.org/2000/svg"><rect id="frame" width="16" height="16" fill="none"/><path fill="#F98B9E" fill-opacity=".6" d="M4 1h8v14H4z"/><path fill-rule="evenodd" clip-rule="evenodd" d="M7 12h1V8h1.5V7H8l-.005-1c-.008-.497.138-.927.437-1.028.488-.164 1.137.05 1.258.092l.295-.838C9.91 4.199 9.455 4 8.811 4c-.644 0-.994.061-1.33.389-.316.31-.465.831-.48 1.611L7 7c0 .027-1 0-1 0v.972h1V12z" fill="#231F20" fill-opacity=".7"/><path fill-rule="evenodd" clip-rule="evenodd" d="M3 1.17A3.001 3.001 0 0 0 1 4v8c0 1.306.835 2.418 2 2.83V1.17zm10 0v13.66A3.001 3.001 0 0 0 15 12V4a3.001 3.001 0 0 0-2-2.83z" fill="#9AA7B0" fill-opacity=".6"/></svg>
